packages/dnb-eufemia/assets/icons/loupe.svg

<svg width="16" height="16" viewBox="0 0 16 16" fill="none" xmlns="http://www.w3.org/2000/svg">
<path d="M12.0303 10.9697C11.7374 10.6768 11.2626 10.6768 10.9697 10.9697C10.6768 11.2626 10.6768 11.7374 10.9697 12.0303L12.0303 10.9697ZM14.4697 15.5303C14.7626 15.8232 15.2374 15.8232 15.5303 15.5303C15.8232 15.2374 15.8232 14.7626 15.5303 14.4697L14.4697 15.5303ZM10.9697 12.0303L14.4697 15.5303L15.5303 14.4697L12.0303 10.9697L10.9697 12.0303ZM11.0682 6.40909C11.0682 8.98224 8.98224 11.0682 6.40909 11.0682V12.5682C9.81066 12.5682 12.5682 9.81066 12.5682 6.40909H11.0682ZM6.40909 11.0682C3.83595 11.0682 1.75 8.98224 1.75 6.40909H0.25C0.25 9.81066 3.00752 12.5682 6.40909 12.5682V11.0682ZM1.75 6.40909C1.75 3.83595 3.83595 1.75 6.40909 1.75V0.25C3.00752 0.25 0.25 3.00752 0.25 6.40909H1.75ZM6.40909 1.75C8.98224 1.75 11.0682 3.83595 11.0682 6.40909H12.5682C12.5682 3.00752 9.81066 0.25 6.40909 0.25V1.75Z" fill="black"/>
</svg>

<svg width="16" height="16" viewBox="0 0 16 16" fill="none" xmlns="http://www.w3.org/2000/svg"><path d="M12.03 10.97a.75.75 0 1 0-1.06 1.06l1.06-1.06Zm2.44 4.56a.75.75 0 1 0 1.06-1.06l-1.06 1.06Zm-3.5-3.5 3.5 3.5 1.06-1.06-3.5-3.5-1.06 1.06Zm.098-5.62a4.66 4.66 0 0 1-4.659 4.658v1.5a6.16 6.16 0 0 0 6.16-6.159h-1.5ZM6.41 11.067A4.66 4.66 0 0 1 1.75 6.41H.25a6.16 6.16 0 0 0 6.16 6.16v-1.5ZM1.75 6.41a4.66 4.66 0 0 1 4.66-4.66V.25A6.16 6.16 0 0 0 .25 6.41h1.5Zm4.66-4.66a4.66 4.66 0 0 1 4.658 4.66h1.5A6.16 6.16 0 0 0 6.41.25v1.5Z" fill="#000"/></svg>
